src/assets/images/prototype/main-image/3-wc.svg

<svg width="436" height="599" fill="none" xmlns="http://www.w3.org/2000/svg"><path d="M97.5 246v-15.5a5 5 0 015-5H321a5 5 0 015 5V246a5 5 0 01-5 5H102.5a5 5 0 01-5-5zm14 48c-10.656-.969-40.708-10.691-60.49-17.384-4.3-1.455-4.24-6.548.242-7.272 22.897-3.696 63.544-3.104 85.785-2.887a5.011 5.011 0 014.963 5.01v18.04c0 2.555-1.923 4.696-4.474 4.849-6.119.367-15.906.564-26.026-.356zm218 0c10.616-.965 39.189-9.648 58.467-15.958 4.315-1.413 4.283-6.541-.187-7.336-22.475-4-61.788-4.317-83.816-4.232a4.986 4.986 0 00-4.964 4.993v18.04c0 2.556 1.923 4.696 4.474 4.849 6.119.367 15.906.564 26.026-.356z" fill="#fff" stroke="#D9D9D9" stroke-width="5" stroke-linejoin="round"/><path d="M140.501 285.001v-13.697a4.976 4.976 0 014.267-4.928c68.65-9.766 128.062-4.594 153.247-.132 2.339.414 3.986 2.462 3.986 4.838v13.919a5 5 0 005 5h32.259c2.218 0 4.156 1.401 4.764 3.535 29.354 103.099 44.639 302.465-123.023 302.465-167.64 0-154.336-199.311-126-302.422.592-2.155 2.542-3.578 4.776-3.578h35.724a5 5 0 005-5z" fill="#fff" stroke="#D9D9D9" stroke-width="5" stroke-linejoin="round"/><ellipse cx="220" cy="441" rx="92" ry="112" fill="#fff" stroke="#D9D9D9" stroke-width="5" stroke-linejoin="round"/><path d="M216.499 367c-11.89 1.081-23.32 7.111-28.882 10.855-1.058.712-1.741 1.832-1.939 3.092-4.168 26.572-3.521 76.382 30.821 77.553 34.35 1.171 36.894-49.939 33.744-77.499-.148-1.292-.803-2.459-1.859-3.218-6.505-4.678-19.796-11.882-31.885-10.783zM40 268.191v1.776c0 2.961 2.525 5.276 5.472 4.99C82.882 271.326 163.138 265 225.5 265c61.866 0 133.338 6.226 166.437 9.87a5.012 5.012 0 005.563-4.988v-1.903c0-1.836-.98-3.526-2.65-4.289-17.524-8.005-71.35-22.055-169.35-23.19-98.778-1.144-160.859 14.287-182.604 23.238-1.8.74-2.896 2.507-2.896 4.453zM3 128C3 58.964 58.964 3 128 3h180c69.036 0 125 55.964 125 125v51.267c0 1.123-.365 2.195-1.132 3.014C424.009 190.676 373.215 237.5 218 237.5S11.991 190.676 4.132 182.281C3.365 181.461 3 180.39 3 179.267V128z" fill="#fff" stroke="#D9D9D9" stroke-width="5" stroke-linejoin="round"/><circle cx="209" cy="73" r="30" fill="#fff" stroke="#D9D9D9" stroke-width="5" stroke-linejoin="round"/><circle cx="209" cy="73" r="21" fill="#fff" stroke="#D9D9D9" stroke-width="5" stroke-linejoin="round"/></svg>

<svg width="436" height="599" viewBox="0 0 436 599" fill="none" xmlns="http://www.w3.org/2000/svg">
<path d="M97.5 246V230.5C97.5 227.739 99.7386 225.5 102.5 225.5H321C323.761 225.5 326 227.739 326 230.5V246C326 248.761 323.761 251 321 251H102.5C99.7386 251 97.5 248.761 97.5 246Z" fill="white" stroke="#D9D9D9" stroke-width="5" stroke-linejoin="round"/>
<path d="M111.5 294C100.844 293.031 70.7916 283.309 51.0099 276.616C46.7091 275.161 46.7692 270.068 51.2516 269.344C74.1488 265.648 114.796 266.24 137.037 266.457C139.785 266.484 142 268.718 142 271.467V289.507C142 292.062 140.077 294.203 137.526 294.356C131.407 294.723 121.62 294.92 111.5 294Z" fill="white" stroke="#D9D9D9" stroke-width="5" stroke-linejoin="round"/>
<path d="M329.5 294C340.116 293.035 368.689 284.352 387.967 278.042C392.282 276.629 392.25 271.501 387.78 270.706C365.305 266.706 325.992 266.389 303.964 266.474C301.216 266.484 299 268.718 299 271.467V289.507C299 292.063 300.923 294.203 303.474 294.356C309.593 294.723 319.38 294.92 329.5 294Z" fill="white" stroke="#D9D9D9" stroke-width="5" stroke-linejoin="round"/>
<path d="M140.501 285.001V271.304C140.501 268.83 142.319 266.724 144.768 266.376C213.418 256.61 272.83 261.782 298.015 266.244C300.354 266.658 302.001 268.706 302.001 271.082V285.001C302.001 287.762 304.239 290.001 307.001 290.001H339.26C341.478 290.001 343.416 291.402 344.024 293.536C373.378 396.635 388.663 596.001 221.001 596.001C53.3615 596.001 66.6648 396.69 95.0006 293.579C95.5928 291.424 97.5426 290.001 99.7774 290.001H135.501C138.262 290.001 140.501 287.762 140.501 285.001Z" fill="white" stroke="#D9D9D9" stroke-width="5" stroke-linejoin="round"/>
<ellipse cx="220" cy="441" rx="92" ry="112" fill="white" stroke="#D9D9D9" stroke-width="5" stroke-linejoin="round"/>
<path d="M216.499 367C204.609 368.081 193.179 374.111 187.617 377.855C186.559 378.567 185.876 379.687 185.678 380.947C181.51 407.519 182.157 457.329 216.499 458.5C250.849 459.671 253.393 408.561 250.243 381.001C250.095 379.709 249.44 378.542 248.384 377.783C241.879 373.105 228.588 365.901 216.499 367Z" fill="white" stroke="#D9D9D9" stroke-width="5" stroke-linejoin="round"/>
<path d="M40 268.191V269.967C40 272.928 42.525 275.243 45.4721 274.957C82.8822 271.326 163.138 265 225.5 265C287.366 265 358.838 271.226 391.937 274.87C394.91 275.197 397.5 272.873 397.5 269.882V267.979C397.5 266.143 396.52 264.453 394.85 263.69C377.326 255.685 323.5 241.635 225.5 240.5C126.722 239.356 64.641 254.787 42.896 263.738C41.0964 264.478 40 266.245 40 268.191Z" fill="white" stroke="#D9D9D9" stroke-width="5" stroke-linejoin="round"/>
<path d="M3 128C3 58.9644 58.9644 3 128 3H308C377.036 3 433 58.9644 433 128V179.267C433 180.39 432.635 181.462 431.868 182.281C424.009 190.676 373.215 237.5 218 237.5C62.7849 237.5 11.9912 190.676 4.13161 182.281C3.36458 181.461 3 180.39 3 179.267V128Z" fill="white" stroke="#D9D9D9" stroke-width="5" stroke-linejoin="round"/>
<circle cx="209" cy="73" r="30" fill="white" stroke="#D9D9D9" stroke-width="5" stroke-linejoin="round"/>
<circle cx="209" cy="73" r="21" fill="white" stroke="#D9D9D9" stroke-width="5" stroke-linejoin="round"/>
</svg>
